app/img/icons/services/3/icons-3.svg

<svg id="Layer_1" data-name="Layer 1" xmlns="http://www.w3.org/2000/svg" viewBox="0 0 44.61 31.14"><defs><style>.cls-1{fill:#f3b81a;}.cls-2{fill:none;stroke:#000;stroke-linecap:round;stroke-miterlimit:10;stroke-width:1.5px;}</style></defs><title>icons</title><path class="cls-1" d="M41.65,1.5a1.39,1.39,0,0,1,.81.25l0,0h0A1.46,1.46,0,0,1,43.11,3V28.18a1.46,1.46,0,0,1-.53,1.12,1.5,1.5,0,0,1-.94.34H2.88A1.53,1.53,0,0,1,2,29.26a1.45,1.45,0,0,1-.5-1.08V3A1.45,1.45,0,0,1,2,1.83l0,0A1.46,1.46,0,0,1,3,1.5H41.65m0-1.5H3A3,3,0,0,0,1.12.65l0,0A3,3,0,0,0,0,3V28.18A2.94,2.94,0,0,0,1,30.4a3,3,0,0,0,1.81.74H41.65a3,3,0,0,0,3-3V3A3,3,0,0,0,43.37.57l-0.06,0A2.88,2.88,0,0,0,41.65,0h0Z"/><line class="cls-2" x1="16.3" y1="15.57" x2="1.4" y2="29.78"/><line class="cls-2" x1="43.18" y1="29.8" x2="28.16" y2="15.64"/><path class="cls-2" d="M43.2,1.34L24.64,18.84a3.75,3.75,0,0,1-4.95,0L1.4,1.36"/></svg>

<?xml version="1.0" encoding="utf-8"?>
<!-- Generator: Adobe Illustrator 19.2.0, SVG Export Plug-In . SVG Version: 6.00 Build 0)  -->
<svg version="1.1" id="Layer_1" xmlns="http://www.w3.org/2000/svg" xmlns:xlink="http://www.w3.org/1999/xlink" x="0px" y="0px"
	 viewBox="0 0 44.6 31.1" style="enable-background:new 0 0 44.6 31.1;" xml:space="preserve">
<style type="text/css">
	.st0{fill:none;stroke:#000000;stroke-width:1.5;stroke-linecap:round;stroke-miterlimit:10;}
	.st1{fill:none;stroke:#F3B81A;stroke-width:1.5;stroke-linecap:round;stroke-miterlimit:10;}
</style>
<title>icons</title>
<path d="M41.7,1.5c0.3,0,0.6,0.1,0.8,0.2l0,0l0,0C42.9,2,43.1,2.5,43.1,3v25.2c0,0.4-0.2,0.8-0.5,1.1c-0.3,0.2-0.6,0.3-0.9,0.3H2.9
	c-0.3,0-0.6-0.2-0.9-0.4c-0.3-0.3-0.5-0.7-0.5-1.1V3c0-0.4,0.2-0.9,0.5-1.2l0,0c0.3-0.2,0.6-0.3,1-0.3H41.7 M41.7,0H3
	C2.3,0,1.7,0.2,1.1,0.7l0,0C0.4,1.2,0,2.1,0,3v25.2c0,0.8,0.4,1.7,1,2.2c0.5,0.4,1.1,0.7,1.8,0.7h38.8c1.7,0,3-1.3,3-3V3
	c0-1-0.5-1.9-1.3-2.4h-0.1C42.8,0.2,42.2,0,41.7,0L41.7,0z"/>
<line class="st0" x1="16.2" y1="15.6" x2="1.4" y2="29.8"/>
<line class="st0" x1="43.2" y1="29.8" x2="28.2" y2="15.6"/>
<path class="st0" d="M16.2,15.5L1.4,1.4"/>
<path class="st0" d="M43.2,1.3l-15,14.1"/>
<path class="st1" d="M28.1,15.6l-3.4,3.2c-1.4,1.2-3.5,1.2-5,0l-3.3-3.2"/>
</svg>
